X: 38859
T: Sunday River
R: waltz
M: 3/4
K: Dmajor
DE|F2 A3F|E4 DE|F2 A3 F|E4 DE|F2 d4|c3 d c2|
B3 cBA|F4 DE|F A4 F|E4 DE|F2 A4|B4 DE|
FBA FED|B,3 A,FE|D4 DE|DF4 FG|A3 Bde|f6|
e5 f|e4 dB|A3 Bde|f6|e2 f2 d2|e4 fe|d4 cBA|
F4 Ad|B3 AGF|E4 DE|FBA FED|B,3 A,FE|D3 CDE|D4|

